X:238
T: HINAUS HINAUS ES RUFT DAS VATERLAND
N: F0415
O: Europa, Mitteleuropa, Deutschland
R: Vaterlands -, Heimat - Lied, nationalistisch, Krieg
M: 4/4
L: 1/16
K: F
C2D3E | F6E2F3GA3=B | c8z2
c2d3c | B6G2A3Fc3A | G4G4z2
C2A3G | F6E2F3GA3=B | c8z2
D2E2F2 | G4e2c2G4A2=B2 | c4c4z2
c2d2c2 | B6G2A3Fc3A | G8z2
c2d2c2 | B6G2A3Fc3A | G4G4z2
C2A2G2 | F2C2A2G2F2C2A2F2 | c6B2G2
G2c3B | A6A2G3FG3c | F8z2
C2A2G2 | F2C2A2G2F2C2A2F2 | c6B2G2
G2c3B | A6A2G3FG3c | F8z2

